outputs/icons/enterprise/card_with_chip_round.svg

<svg xmlns="http://www.w3.org/2000/svg" width="1200" height="1200" fill="none"><path fill="#000" d="M250 500.56h100c27.614 0 50 22.39 50 50V650c0 27.615-22.386 50-50 50H250c-27.614 0-50-22.385-50-50v-99.44c0-27.61 22.386-50 50-50"/><path fill="#000" fill-rule="evenodd" d="M150 200h900a100 100 0 0 1 100 100v600a100 100 0 0 1-100 100H150A99.999 99.999 0 0 1 50 900V300a100 100 0 0 1 29.29-70.71A100 100 0 0 1 150 200m935.355 64.644A50 50 0 0 0 1050 250H150a50 50 0 0 0-35.356 14.644A50 50 0 0 0 100 300v600a50 50 0 0 0 50 50h900c13.26 0 25.98-5.27 35.355-14.645A50 50 0 0 0 1100 900V300a50 50 0 0 0-14.645-35.356"/></svg>

<svg width="1200" height="1200" viewBox="0 0 1200 1200" fill="none" xmlns="http://www.w3.org/2000/svg"><path fill-rule="evenodd" d="M1085.355 264.644C1075.98 255.268 1063.26 250 1050 250H150C136.739 250 124.022 255.268 114.644 264.644C105.268 274.022 100 286.739 100 300V900C100 913.26 105.268 925.98 114.644 935.355C124.022 944.73 136.739 950 150 950H1050C1063.26 950 1075.98 944.73 1085.355 935.355C1094.73 925.98 1100 913.26 1100 900V300C1100 286.739 1094.73 274.022 1085.355 264.644ZM150 200H1050C1076.52 200 1101.955 210.535 1120.71 229.29C1139.465 248.043 1150 273.478 1150 300V900C1150 926.52 1139.465 951.955 1120.71 970.71C1101.955 989.465 1076.52 1000 1050 1000H150C123.478 1000 98.043 989.465 79.29 970.71C60.535 951.955 50 926.52 50 900V300C50 273.478 60.535 248.043 79.29 229.29C98.043 210.535 123.478 200 150 200ZM250 500.56H350C377.614 500.56 400 522.95 400 550.56V650C400 677.615 377.614 700 350 700H250C222.386 700 200 677.615 200 650V550.56C200 522.95 222.386 500.56 250 500.56Z" fill="#1D1E23"/></svg>
